X:1
T:A & E Waltz
L:1/8
M:3/4
I:linebreak $
K:A
V:1 treble
V:1
 (3(CC)B, ||"A" A,3 B, CE | "A7"Ac-  c4 |"D" B2 A2 (3FAF | "A"E3 F EC |"A" A,3 B, CE | A3 F EC | "E"B,6 |$
 E3 F EC |  "A"A,3 B, CE | "A7"Ac-  c4 |"D" B2 A2 (3FAF | "A"E6 | "A"e3 f af | e c2 B AF | "E"E2 c2 B2 |$
 A3 A GA || [K:E] "E"B3 c BA |  G B3 ef | {/f}g3 f ec | B4 fg | "B7"a f2 d c2 | B d3 fa | "E"!slide!g3 f ec |$
 B3A GA |"E" B3 c BA | G B3 ef |  {/f}g3 f ec | B4 fg |"B7" a f2 d c2 | B d3 f2 |"E" e6 |"E7" dB GE (3=DCB,|]
